svg/vcluster.svg

<?xml version="1.0" encoding="UTF-8"?>
<svg xmlns="http://www.w3.org/2000/svg" xmlns:xlink="http://www.w3.org/1999/xlink" width="32" height="32" viewBox="0 0 32 32">
<path fill-rule="evenodd" fill="rgb(94.901961%, 45.490196%, 1.960784%)" fill-opacity="1" d="M 19.78125 19.234375 L 16.554688 13.632812 L 22.59375 3.039062 L 28.996094 3.070312 Z M 15.445312 10.070312 L 18.621094 4.4375 L 6.664062 4.4375 C 3.773438 4.4375 1.953125 7.550781 3.371094 10.070312 Z M 12.953125 12.855469 L 6.550781 12.886719 L 15.761719 29.054688 L 18.988281 23.449219 Z M 12.953125 12.855469 "/>
</svg>

<svg role="img" viewBox="0 0 32 32" height="32" width="32" xmlns="http://www.w3.org/2000/svg"><path d="m19.781 19.234-3.226-5.601 6.039-10.594 6.402.031Zm-4.336-9.164 3.176-5.632H6.664c-2.89 0-4.71 3.113-3.293 5.632Zm-2.492 2.785-6.402.032 9.21 16.168 3.227-5.606Zm0 0" fill="rgb(94.901961%, 45.490196%, 1.960784%)" fill-rule="evenodd"/></svg>
